X: 1
T:McFarley's
M:4/4
L:1/8
S:From Altan: Harvest Storm
R:Reel
K:D
(3ABc |: dD (3DDD EDB,D | A,DFA BAFA | dDcD BDAD | EDFA BAFA |
!dD (3DDD EDB,D | A,DFA BAFA | (3Bcd ec dBAF |1 EDEF D2 (3ABc :|2 EDEF D
2
ag |
!:fgab afdg | fdad bdad | efga ge=cf | e=cgc acgc |
!fgaf bagf | gfeg fdBc | defd ecdB |1 AFEF D2ag :|2 AFEF D2 (3ABc ||
